X:1
T:Easter Flowers Are Blooming Bright
T:George Waring Stebbins, 1913
T:Easter Flowers Are Blooming Bright
T:Public Domain
T:Public Domain
C:George Waring Stebbins, 1913
Z:Public Domain
%%score ( 1 2 ) ( 3 4 )
L:1/8
M:4/4
K:C
V:1 treble 
V:2 treble 
V:3 bass 
V:4 bass 
V:1
 [CE]2 [B,E]2 [A,E]2 ([A,C][B,D]) | [CE]3 [EG] [EG]4 | [A,FA]2 [A,EA]2 [DA]2 ([DF][EG]) | %3
w: 1.~East- er flowers are *|bloom- ing bright,|East- er skies pour *|
w: 2.~An- gels car- oled *|this sweet lay,|When in man- ger *|
w: 3.~He, then born to *|grief and pain,|Now to glo- ry *|
w: 4.~As He ris- eth, *|rise we too,|Tune we heart and *|
 [FA]3 [Ac] [Ac]4 | [FB]3 [FA] [EG]2 [DF]2 | [CE]2 ([B,D]2 [A,C]2) [A,B,D]2 | %6
w: ra- diant light,|Christ our Lord is|risen in * might,|
w: rude He lay,|Now once more cast|grief a- * way,|
w: born a- gain,|Call- eth forth our|glad- dest * strain,|
w: voice a- new,|Off- ering hom- age|glad and * true,|
 [A,CE]2 [CEA]2 [CEA]2 [DEB]2 | [CEA]4 [CEA]4 ||"^Refrain" [CFA]4 [DFAd]4 | ([GB]2 A2) [DG]4 | %10
w: Glo- ry in the|high- est!|||
w: Glo- ry in the|high- est!|||
w: Glo- ry in the|high- est!|||
w: Glo- ry in the|high- est!|||
 [EGB]4 [EGBe]4 | ([Ac]2 B2) [EA]4 | [CFA]3 [FAc] [FAd]2 [FAcf]2 | [E^Ge]2 [EBd]2 ([EAc]2 [DA]2) | %14
w: ||||
w: ||||
w: ||||
w: ||||
 ([EG]2 [CEGc]2) ([CFAc]2 [DFBd]2) | [CEGc]4 [CEGc]4 |] %16
w: ||
w: ||
w: ||
w: ||
V:2
 x8 | x8 | x8 | x8 | x8 | x8 | x8 | x8 || x8 | D4 x4 | x8 | E4 x4 | x8 | x8 | x8 | x8 |] %16
V:3
 [C,G,]2 [C,G,]2 [C,G,]2 [C,G,]2 | (E,2 G,2) (C2 _B,2) | [F,,C,]4 [F,_B,]2 [F,B,]2 | %3
w: ~ ~ ~ ~|~ * ~ *|~ ~ ~|
 A,2 C2 (F2 E2) | (D2 B,2) [E,C]2 [B,,G,]2 | [C,G,]2 [^G,,F,]2 [A,,E,]2 F,,2 | E,,4 E,2 [E,^G,]2 | %7
w: ~ ~ ~ *|~ * ~ ~|~ ~ ~ ~|Al- le- lu-|
 [A,,A,]4 [A,,A,]4 || [F,,F,]4 [D,,D,]4 | ([G,,G,]2 [A,,A,]2) [B,,B,]4 | [G,,G,]4 [E,,E,]4 | %11
w: Al- le-|lu- ia!|Christ * our|Lord is|
 ([A,,A,]2 [B,,B,]2) [C,C]4 | [F,,F,]2 [E,,E,]2 [D,,D,]2 [D,C]2 | %13
w: risen * in|might, Al- le- lu-|
 [E,B,]2 [^G,B,]2 ([A,C]2 [F,C]2) | ([G,C]2 [G,,G,]2) ([G,,G,]2 [G,,,G,,]2) | [C,,C,]4 [C,,C,]4 |] %16
w: ia! Al- le- *|lu- * ia! *||
V:4
 x8 | C,4 C,4 | x8 | F,4 F,4 | D,4 x4 | x8 | x4 E,2 x2 | x8 || x8 | x8 | x8 | x8 | x8 | x8 | x8 | %15
w: |~ ~||~ ~|~||ia!|||||||||
 x8 |] %16
w: |

